assets/imgs/Booking_3.svg

<svg width="25" height="25" viewBox="0 0 19 20" fill="none" xmlns="http://www.w3.org/2000/svg">
<path fill-rule="evenodd" clip-rule="evenodd" d="M2.19448 0.151123H16.1886C17.2882 0.151123 18.1878 1.05075 18.1878 2.15029V17.344C18.1878 18.7434 16.7884 19.743 15.4889 19.2432L13.8896 18.6434C13.3898 18.4435 12.89 18.4435 12.3902 18.7434L9.99123 19.8429C9.49144 20.0428 8.89169 20.0428 8.3919 19.8429L5.9929 18.7434C5.4931 18.5435 4.99331 18.5435 4.49352 18.6434L2.89419 19.1432C1.59473 19.643 0.195312 18.6434 0.195312 17.344V2.15029C0.195312 1.05075 1.09494 0.151123 2.19448 0.151123ZM14.1895 5.94871C14.5893 5.94871 14.9891 5.64883 14.9891 5.14904C14.9891 4.64925 14.5893 4.34937 14.1895 4.34937H4.19365C3.79381 4.34937 3.39398 4.74921 3.39398 5.14904C3.39398 5.54887 3.79381 5.94871 4.19365 5.94871H14.1895ZM14.9891 9.14737C14.9891 9.54721 14.6893 9.94704 14.1895 9.94704H4.19365C3.79381 9.94704 3.39398 9.64717 3.39398 9.14737C3.39398 8.64758 3.69385 8.34771 4.19365 8.34771H14.1895C14.5893 8.34771 14.9891 8.74754 14.9891 9.14737ZM9.19156 13.9454C9.5914 13.9454 9.99123 13.6455 9.99123 13.1457C9.99123 12.6459 9.69135 12.346 9.19156 12.346H4.19365C3.79381 12.346 3.39398 12.6459 3.39398 13.1457C3.39398 13.6455 3.69385 13.9454 4.19365 13.9454H9.19156Z" fill="#C891C3"/>
</svg>

<svg xmlns="http://www.w3.org/2000/svg" width="25" height="25" fill="none" viewBox="0 0 19 20"><path fill="#C891C3" fill-rule="evenodd" d="M2.194.151H16.19c1.1 0 1.999.9 1.999 2v15.193c0 1.4-1.4 2.399-2.7 1.9l-1.598-.6c-.5-.2-1-.2-1.5.1l-2.399 1.099c-.5.2-1.1.2-1.6 0l-2.398-1.1c-.5-.2-1-.2-1.5-.1l-1.599.5c-1.3.5-2.699-.5-2.699-1.799V2.15c0-1.1.9-1.999 2-1.999M14.19 5.95c.4 0 .8-.3.8-.8s-.4-.8-.8-.8H4.194c-.4 0-.8.4-.8.8s.4.8.8.8zm.8 3.198c0 .4-.3.8-.8.8H4.194c-.4 0-.8-.3-.8-.8s.3-.8.8-.8h9.996c.4 0 .8.4.8.8m-5.798 4.798c.4 0 .8-.3.8-.8s-.3-.799-.8-.799H4.194c-.4 0-.8.3-.8.8s.3.8.8.8z" clip-rule="evenodd"/></svg>
